docs/.gitbook/assets/icon-sun-16@dark.svg

<svg width="32" height="32" viewBox="0 0 16 16" fill="none" xmlns="http://www.w3.org/2000/svg">
<rect x="0" y="0" width="16" height="16" fill="#181c1f"/>
<path fill-rule="evenodd" clip-rule="evenodd" d="M7.99927 1C8.41348 1 8.74927 1.33579 8.74927 1.75V4.07008C9.29622 4.17375 9.80377 4.38877 10.2474 4.69068L11.8879 3.05024C12.1808 2.75734 12.6557 2.75734 12.9485 3.05024C13.2414 3.34313 13.2414 3.818 12.9485 4.1109L11.3083 5.75113C11.6106 6.19495 11.8259 6.70274 11.9297 7.25L14.2495 7.25C14.6637 7.25 14.9995 7.58579 14.9995 8C14.9995 8.41421 14.6637 8.75 14.2495 8.75L11.9297 8.75C11.8259 9.2972 11.6106 9.80494 11.3084 10.2487L12.9488 11.8891C13.2417 12.182 13.2417 12.6569 12.9488 12.9498C12.6559 13.2427 12.181 13.2427 11.8881 12.9498L10.2476 11.3092C9.80388 11.6112 9.29628 11.8262 8.74927 11.9299V14.25C8.74927 14.6642 8.41348 15 7.99927 15C7.58505 15 7.24927 14.6642 7.24927 14.25V11.9297C6.70224 11.8258 6.19466 11.6106 5.75101 11.3084L4.10971 12.9497C3.81681 13.2426 3.34194 13.2426 3.04905 12.9497C2.75615 12.6568 2.75615 12.182 3.04905 11.8891L4.69056 10.2476C4.38876 9.80406 4.17378 9.29672 4.07008 8.75H1.74951C1.3353 8.75 0.999512 8.41421 0.999512 8C0.999512 7.58579 1.3353 7.25 1.74951 7.25H4.07008C4.1738 6.70322 4.38881 6.19583 4.69066 5.75229L3.04929 4.11093C2.7564 3.81804 2.7564 3.34316 3.04929 3.05027C3.34219 2.75738 3.81706 2.75738 4.10995 3.05027L5.75116 4.69147C6.19477 4.38937 6.7023 4.17416 7.24927 4.07031V1.75C7.24927 1.33579 7.58505 1 7.99927 1ZM7.99988 5.5C6.61917 5.5 5.49988 6.61929 5.49988 8C5.49988 9.38071 6.61917 10.5 7.99988 10.5C9.38059 10.5 10.4999 9.38071 10.4999 8C10.4999 6.61929 9.38059 5.5 7.99988 5.5Z" fill="#fff"/>
</svg>

<svg xmlns="http://www.w3.org/2000/svg" width="32" height="32" fill="none" viewBox="0 0 16 16"><path fill="#181c1f" d="M0 0h16v16H0z"/><path fill="#fff" fill-rule="evenodd" d="M8 1a.75.75 0 0 1 .75.75v2.32a4 4 0 0 1 1.497.62l1.64-1.64a.75.75 0 1 1 1.061 1.06l-1.64 1.641c.303.444.518.952.622 1.499h2.32a.75.75 0 0 1 0 1.5h-2.32a4 4 0 0 1-.622 1.499l1.64 1.64a.75.75 0 0 1-1.06 1.06l-1.64-1.64a4 4 0 0 1-1.499.62v2.321a.75.75 0 0 1-1.5 0v-2.32a4 4 0 0 1-1.498-.622L4.11 12.95a.75.75 0 0 1-1.061-1.06l1.642-1.642a4 4 0 0 1-.62-1.498H1.75a.75.75 0 0 1 0-1.5h2.32a4 4 0 0 1 .62-1.498L3.05 4.111a.75.75 0 0 1 1.06-1.06l1.641 1.64a4 4 0 0 1 1.498-.62V1.75A.75.75 0 0 1 8 1m0 4.5a2.5 2.5 0 1 0 0 5 2.5 2.5 0 0 0 0-5" clip-rule="evenodd"/></svg>
